!!!ONB: MCCC : IJH0435_03 : Extracted Monophonic Melody
!!!COM: Haydn, Joseph
!!!OPR: String Quartet, Hob.III:43
!!!OMV: 3
!!!SCT: Hob.III:43 ; Op.42
!!!ODT: 1785///
**kern
*thru
*k[b-e-]
*B-:
*clefG
*M2/2
2dd
4ee-
8dd
8cc
=1
4.b-
16cc
16dd
4ee-
4ff
=2
4.gg
8aa
4bb-
8aa
8gg
=3
2ee-
2dd
=4
2cc
4dd
8cc
8b-
=5
4.cc
16a
16b-
4cc
4dd
=6
4ee-
8.ee-
16ff
4gg
8ff
8ee-
=7
2dd
2cc
=8
2dd
4ee-
8dd
8cc
=9
4.b-
16cc
16dd
4ee-
4ff
=10
4gg
8.gg
32aa
32bb-
4dd
8cc
16b-
16cc
=11
2cc
4b-
4r
=12
1ff[
=13
8ff]
8aa
8bb-
8ccc
8ddd
8bb-
8fff
8fff
=14
1fff[
=15
8fff]
8eee
8fff
8eee
8fff
8eee-
8ddd
8ccc
=16
4.bb-
8ddd
8ddd
8ccc
8ccc
8bb-
=17
4bb-
8aa
8bb-
8bb
8ccc
8ddd
8ccc
=18
2.ccc
4ee
=19
2gg
4ff
8r
8ff
=20
1ff[
=21
8ff]
16gg
16aa
16bb-
16ccc
16ddd
16eee-
8fff
8fff
8fff
8fff
=22
1fff[
=23
16fff]
16eee
16fff
16eee
16fff
16eee
16fff
16eee
8fff
8eee-
8ddd
8ccc
=24
4bb-
8bb-
8ccc#
4ddd
8ccc
8bb-
=25
4bb-
8aa
8bb-
8bb
8ccc
8ddd
8ccc
=26
2.ccc
4ee
=27
2gg
4ff
4r
=28
1ff[
=29
1ff]
=30
2ff#
4gg
8ff#
8gg
=31
4.aa
16ff#
16gg
4aa
4aa
=32
2bb-
4aa
8gg
8ff#
=33
2ff#
4gg
4ff
=34
4ee-
8dd
8cc
4b-
4a
=35
1g
=36
2a-
4f
8e-
8d
=37
2d
4e-
4f#
=38
4g
4b
4cc
8ee-
8cc
=39
2b-
8a
8b-
8cc
8cc#
=40
2dd
4ee-
8dd
8cc
=41
4.b-
16cc
16dd
4ee-
4ff
=42
4.gg
8aa
4bb-
8aa
8gg
=43
2ee-
2dd
=44
2cc
4dd
8cc
8b-
=45
4.cc
16a
16b-
4cc
4dd
=46
4ee-
8.ee-
16ff
4gg
8ff
8ee-
=47
2dd
2cc
=48
2dd
4ee-
8dd
8cc
=49
4.b-
16cc
16dd
4ee-
4ff
=50
4gg
8.gg
32aa
32bb-
4dd
8cc
16b-
16cc
=51
2cc
4b-
4r
=52
1bb-[
=53
4bb-]
4ff
4dd
4b-
=54
1a
=55
4b-
4r
4f
4r
=56
4d
2.r
==
*-
